_includes/icons/ios-party-baloons.svg

<svg fill="#666" height="50" viewBox="0 0 50 50" width="50" xmlns="http://www.w3.org/2000/svg"><path d="m25 2c-4.851562 0-9.050781 2.90625-10.9375 7.0625-.640625-.0625-1.285156-.082031-1.9375-.03125-.925781.074219-1.832031.269531-2.75.59375-5.730469 2.019531-8.769531 8.332031-6.75 14.0625 1.007813 2.863281 3.328125 5.894531 6.125 8.0625 2.492188 1.933594 5.445313 3.234375 8.25 2.71875l.15625 1.53125 1.34375-.625c.125.222656.230469.394531.375.65625.609375 1.109375 1.382813 2.527344 2.15625 4 .773438 1.472656 1.535156 2.996094 2.09375 4.28125s.875 2.441406.875 2.6875c-.007812.308594.128906.601563.367188.796875.234375.195313.550781.269531.851562.203125.101563-.027344.195313-.070312.28125-.125.019531-.007812.042969-.019531.0625-.03125.058594-.046875.109375-.097656.15625-.15625.074219-.0625.136719-.136719.1875-.21875.046875-.097656.078125-.203125.09375-.3125.003906-.050781.003906-.105469 0-.15625v-.375c.003906-.050781.003906-.105469 0-.15625 0-.011719.078125-.429687.25-.96875.171875-.539062.410156-1.226562.71875-2 .621094-1.550781 1.464844-3.453125 2.3125-5.3125s1.707031-3.683594 2.375-5.09375c.203125-.429687.335938-.746094.5-1.09375l1.28125.59375.1875-1.78125c2.675781.21875 5.433594-1.085937 7.78125-2.9375 2.832031-2.238281 5.152344-5.320312 6.15625-8.25 2.007813-5.859375-1.109375-12.273437-6.96875-14.28125-1.34375-.460937-2.722656-.644531-4.0625-.59375-1.117187.042969-2.210937.265625-3.25.625-2.15625-2.074219-5.0625-3.375-8.28125-3.375zm0 2c2.894531 0 5.488281 1.230469 7.3125 3.1875.039063.046875.078125.085938.125.125 1.589844 1.769531 2.5625 4.113281 2.5625 6.6875 0 2.765625-1.175781 6.507813-3.0625 9.4375-.828125 1.285156-1.761719 2.40625-2.78125 3.25-.007812.003906-.023437-.003906-.03125 0-.105469.054688-.203125.128906-.28125.21875-.035156.027344-.066406.058594-.09375.09375-.011719.007813-.019531.023438-.03125.03125-1.183594.875-2.457031 1.375-3.71875 1.375-.871094 0-1.75-.25-2.59375-.6875-1.605469-.832031-3.105469-2.359375-4.34375-4.28125-1.886719-2.929687-3.0625-6.671875-3.0625-9.4375 0-1.128906.1875-2.207031.53125-3.21875.011719-.03125.023438-.0625.03125-.09375.101563-.136719.167969-.300781.1875-.46875 0-.03125 0-.0625 0-.09375 1.507813-3.609375 5.085938-6.125 9.25-6.125zm11.59375 2.75c1.097656-.039062 2.238281.121094 3.34375.5 4.835938 1.65625 7.40625 6.882813 5.75 11.71875-.828125 2.417969-2.996094 5.339844-5.53125 7.34375s-5.34375 3.03125-7.53125 2.28125c-.570312-.195312-1.082031-.515625-1.5625-.9375.953125-.90625 1.816406-1.96875 2.5625-3.125 2.09375-3.25 3.375-7.222656 3.375-10.53125 0-2.609375-.859375-5.027344-2.28125-7 .617188-.152344 1.230469-.226562 1.875-.25zm-23.1875 4.25c-.25.964844-.40625 1.960938-.40625 3 0 3.308594 1.28125 7.28125 3.375 10.53125 1.167969 1.8125 2.617188 3.421875 4.28125 4.5-.828125 1.625-1.941406 2.796875-3.3125 3.28125-2.128906.75-4.878906-.21875-7.375-2.15625s-4.640625-4.769531-5.46875-7.125c-1.660156-4.710937.820313-9.871094 5.53125-11.53125 1.128906-.398437 2.253906-.554687 3.375-.5zm16.0625 17.9375c.246094.230469.507813.429688.78125.625l-1.03125 1.09375 1.125.53125c-.160156.332031-.304687.613281-.5 1.03125-.667969 1.410156-1.519531 3.25-2.375 5.125-.515625 1.128906-1.003906 2.257813-1.46875 3.34375v-8.6875h1.5l-.625-1.84375c.917969-.246094 1.777344-.671875 2.59375-1.21875zm-7.03125 1c.222656.082031.460938.15625.6875.21875l-.625 1.84375h1.5v9.4375c-.375-.773437-.785156-1.574219-1.1875-2.34375-.785156-1.496094-1.578125-2.921875-2.1875-4.03125-.117187-.210937-.179687-.34375-.28125-.53125l1.03125-.46875-1.125-1.21875c.890625-.789062 1.617188-1.777344 2.1875-2.90625z"/></svg>

<svg xmlns="http://www.w3.org/2000/svg" viewBox="0 0 50 50" width="50" height="50" fill="#666"><path d="M 25 2 C 20.148438 2 15.949219 4.90625 14.0625 9.0625 C 13.421875 9 12.777344 8.980469 12.125 9.03125 C 11.199219 9.105469 10.292969 9.300781 9.375 9.625 C 3.644531 11.644531 0.605469 17.957031 2.625 23.6875 C 3.632813 26.550781 5.953125 29.582031 8.75 31.75 C 11.242188 33.683594 14.195313 34.984375 17 34.46875 L 17.15625 36 L 18.5 35.375 C 18.625 35.597656 18.730469 35.769531 18.875 36.03125 C 19.484375 37.140625 20.257813 38.558594 21.03125 40.03125 C 21.804688 41.503906 22.566406 43.027344 23.125 44.3125 C 23.683594 45.597656 24 46.753906 24 47 C 23.992188 47.308594 24.128906 47.601563 24.367188 47.796875 C 24.601563 47.992188 24.917969 48.066406 25.21875 48 C 25.320313 47.972656 25.414063 47.929688 25.5 47.875 C 25.519531 47.867188 25.542969 47.855469 25.5625 47.84375 C 25.621094 47.796875 25.671875 47.746094 25.71875 47.6875 C 25.792969 47.625 25.855469 47.550781 25.90625 47.46875 C 25.953125 47.371094 25.984375 47.265625 26 47.15625 C 26.003906 47.105469 26.003906 47.050781 26 47 L 26 46.625 C 26.003906 46.574219 26.003906 46.519531 26 46.46875 C 26 46.457031 26.078125 46.039063 26.25 45.5 C 26.421875 44.960938 26.660156 44.273438 26.96875 43.5 C 27.589844 41.949219 28.433594 40.046875 29.28125 38.1875 C 30.128906 36.328125 30.988281 34.503906 31.65625 33.09375 C 31.859375 32.664063 31.992188 32.347656 32.15625 32 L 33.4375 32.59375 L 33.625 30.8125 C 36.300781 31.03125 39.058594 29.726563 41.40625 27.875 C 44.238281 25.636719 46.558594 22.554688 47.5625 19.625 C 49.570313 13.765625 46.453125 7.351563 40.59375 5.34375 C 39.25 4.882813 37.871094 4.699219 36.53125 4.75 C 35.414063 4.792969 34.320313 5.015625 33.28125 5.375 C 31.125 3.300781 28.21875 2 25 2 Z M 25 4 C 27.894531 4 30.488281 5.230469 32.3125 7.1875 C 32.351563 7.234375 32.390625 7.273438 32.4375 7.3125 C 34.027344 9.082031 35 11.425781 35 14 C 35 16.765625 33.824219 20.507813 31.9375 23.4375 C 31.109375 24.722656 30.175781 25.84375 29.15625 26.6875 C 29.148438 26.691406 29.132813 26.683594 29.125 26.6875 C 29.019531 26.742188 28.921875 26.816406 28.84375 26.90625 C 28.808594 26.933594 28.777344 26.964844 28.75 27 C 28.738281 27.007813 28.730469 27.023438 28.71875 27.03125 C 27.535156 27.90625 26.261719 28.40625 25 28.40625 C 24.128906 28.40625 23.25 28.15625 22.40625 27.71875 C 20.800781 26.886719 19.300781 25.359375 18.0625 23.4375 C 16.175781 20.507813 15 16.765625 15 14 C 15 12.871094 15.1875 11.792969 15.53125 10.78125 C 15.542969 10.75 15.554688 10.71875 15.5625 10.6875 C 15.664063 10.550781 15.730469 10.386719 15.75 10.21875 C 15.75 10.1875 15.75 10.15625 15.75 10.125 C 17.257813 6.515625 20.835938 4 25 4 Z M 36.59375 6.75 C 37.691406 6.710938 38.832031 6.871094 39.9375 7.25 C 44.773438 8.90625 47.34375 14.132813 45.6875 18.96875 C 44.859375 21.386719 42.691406 24.308594 40.15625 26.3125 C 37.621094 28.316406 34.8125 29.34375 32.625 28.59375 C 32.054688 28.398438 31.542969 28.078125 31.0625 27.65625 C 32.015625 26.75 32.878906 25.6875 33.625 24.53125 C 35.71875 21.28125 37 17.308594 37 14 C 37 11.390625 36.140625 8.972656 34.71875 7 C 35.335938 6.847656 35.949219 6.773438 36.59375 6.75 Z M 13.40625 11 C 13.15625 11.964844 13 12.960938 13 14 C 13 17.308594 14.28125 21.28125 16.375 24.53125 C 17.542969 26.34375 18.992188 27.953125 20.65625 29.03125 C 19.828125 30.65625 18.714844 31.828125 17.34375 32.3125 C 15.214844 33.0625 12.464844 32.09375 9.96875 30.15625 C 7.472656 28.21875 5.328125 25.386719 4.5 23.03125 C 2.839844 18.320313 5.320313 13.160156 10.03125 11.5 C 11.160156 11.101563 12.285156 10.945313 13.40625 11 Z M 29.46875 28.9375 C 29.714844 29.167969 29.976563 29.367188 30.25 29.5625 L 29.21875 30.65625 L 30.34375 31.1875 C 30.183594 31.519531 30.039063 31.800781 29.84375 32.21875 C 29.175781 33.628906 28.324219 35.46875 27.46875 37.34375 C 26.953125 38.472656 26.464844 39.601563 26 40.6875 L 26 32 L 27.5 32 L 26.875 30.15625 C 27.792969 29.910156 28.652344 29.484375 29.46875 28.9375 Z M 22.4375 29.9375 C 22.660156 30.019531 22.898438 30.09375 23.125 30.15625 L 22.5 32 L 24 32 L 24 41.4375 C 23.625 40.664063 23.214844 39.863281 22.8125 39.09375 C 22.027344 37.597656 21.234375 36.171875 20.625 35.0625 C 20.507813 34.851563 20.445313 34.71875 20.34375 34.53125 L 21.375 34.0625 L 20.25 32.84375 C 21.140625 32.054688 21.867188 31.066406 22.4375 29.9375 Z"/></svg>
